Origami/22x22/apps/rdm.svg

<svg width="22" height="22" version="1.1" viewBox="0 0 22 22" xmlns="http://www.w3.org/2000/svg">
 <path d="m11.000462 9.5000029c-0.663295-1.21e-4 -1.3266231 0.147688-1.8174741 0.442197l-7.447165 4.4675411c-0.9817028 0.589018-0.9807913 1.591937 9e-4 2.180956l7.44625 4.46754c0.9817031 0.589018 2.6532471 0.589017 3.6349481 0l7.446268-4.46754c0.981701-0.589017 0.980777-1.59194-9.5e-4 -2.180956l-7.445304-4.4675411c-0.490851-0.294509-1.154179-0.442077-1.817473-0.442197z" style="opacity:.2"/>
 <path d="m11.000462 9.0000029c-0.663295-1.204e-4 -1.3266231 0.147688-1.8174741 0.442197l-7.447165 4.4675411c-0.9817028 0.589018-0.9807913 1.591937 9e-4 2.180956l7.44625 4.46754c0.9817031 0.589018 2.6532471 0.589017 3.6349481 0l7.446268-4.46754c0.981701-0.589017 0.980777-1.59194-9.5e-4 -2.180956l-7.445304-4.4675411c-0.490851-0.294509-1.154179-0.442076-1.817473-0.442197z" style="fill:#af2d2c"/>
 <path d="m11.000462 5.5000038c-0.663295-1.205e-4 -1.3266231 0.147688-1.8174741 0.4421974l-7.4471648 4.4675408c-0.9817028 0.589018-0.9807913 1.591937 9e-4 2.180956l7.4462508 4.46754c0.9817021 0.589017 2.6532471 0.589017 3.6349481 0l7.446268-4.46754c0.9817-0.589017 0.980776-1.59194-9.5e-4 -2.180956l-7.445305-4.4675408c-0.490851-0.2945094-1.154178-0.4420769-1.817473-0.4421974z" style="opacity:.2"/>
 <path d="m11.000462 5.0000039c-0.663295-1.205e-4 -1.3266231 0.147688-1.8174741 0.4421974l-7.4471648 4.4675406c-0.9817028 0.5890181-0.9807913 1.5919371 9e-4 2.1809561l7.4462508 4.46754c0.9817021 0.589018 2.6532471 0.589017 3.6349481 0l7.446268-4.46754c0.9817-0.589017 0.980776-1.59194-9.5e-4 -2.1809561l-7.445305-4.4675406c-0.490851-0.2945094-1.154178-0.4420769-1.817473-0.4421974z" style="fill:#da3837"/>
 <path d="m11.000462 1.5000049c-0.663295-1.205e-4 -1.3266231 0.1476879-1.8174741 0.4421974l-7.447165 4.4675408c-0.9817028 0.5890178-0.9807913 1.5919366 9e-4 2.1809555l7.44625 4.4675404c0.9817031 0.589017 2.6532471 0.589017 3.6349481 0l7.446268-4.4675404c0.981701-0.5890169 0.980777-1.5919397-9.5e-4 -2.1809555l-7.445304-4.4675408c-0.490851-0.2945095-1.154179-0.4420769-1.817473-0.4421974z" style="opacity:.2"/>
 <path d="m11.000462 1.0000049c-0.663295-1.205e-4 -1.3266231 0.147688-1.8174741 0.4421974l-7.447165 4.4675409c-0.9817028 0.5890179-0.9807913 1.5919366 9e-4 2.1809555l7.44625 4.4675403c0.9817031 0.589018 2.6532471 0.589017 3.6349481 0l7.446268-4.4675403c0.981701-0.5890169 0.980777-1.5919396-9.5e-4 -2.1809555l-7.445304-4.4675409c-0.490851-0.2945094-1.154179-0.4420769-1.817473-0.4421974z" style="fill:#e0504d"/>
 <path d="m11 1.0000049c-0.663295-1.205e-4 -1.3265321 0.1478732-1.8173831 0.4423827l-7.4472632 4.4677721c-0.5942141 0.3565264-0.8216787 0.8636068-0.6962889 1.3398437 0.0814256-0.3105549 0.3088004-0.6073519 0.6962889-0.8398438l7.4472632-4.4677721c0.490851-0.2945095 1.1540881-0.4425032 1.8173831-0.4423827s1.327508 0.1478732 1.818359 0.4423827l7.445311 4.4677721c0.387498 0.2324909 0.615491 0.5292884 0.697265 0.8398438 0.124859-0.4762374-0.103037-0.9833183-0.697265-1.3398437l-7.445311-4.4677721c-0.490851-0.2945095-1.155064-0.4422622-1.818359-0.4423827z" style="fill:#ffffff;opacity:.2"/>
 <polygon transform="matrix(.01476006 0 0 .02167915 .0507095 -1.1550007)" points="759.89 376.17 715.19 301.86 572.44 289.03 678.96 250.62 647 191.66 746.72 230.66 840.74 199.88 815.33 260.85 911.2 296.75 787.57 309.58" style="opacity:.2"/>
 <polygon transform="matrix(.01476006 0 0 .02167915 .0507095 -1.6550007)" points="746.72 230.66 840.74 199.88 815.33 260.85 911.2 296.75 787.57 309.58 759.89 376.17 715.19 301.86 572.44 289.03 678.96 250.62 647 191.66" style="fill:#ffffff"/>
 <polygon transform="matrix(.01209877 0 0 .02048718 1.6870313 -1.1981182)" points="521.79 524.11 852.4 473.38 752.51 619.81" style="opacity:.2"/>
 <polygon transform="matrix(.01209877 0 0 .02048718 1.6870313 -1.6981182)" points="852.4 473.38 752.51 619.81 521.79 524.11" style="fill:#ffffff"/>
 <ellipse cx="6.5" cy="7" rx="2.5" ry="1.5" style="opacity:.2"/>
 <ellipse cx="6.5" cy="6.5" rx="2.5" ry="1.5" style="fill:#ffffff"/>
 <g transform="matrix(.51839738 0 0 .58416919 -1.6991025 -2.1170529)">
  <path transform="matrix(.02808355 0 0 .04204144 2.8125203 -1.0576208)" d="m1046.891 477.818-206.066-77.243 206.066-85.628z" style="opacity:.25"/>
  <path transform="matrix(.02808355 0 0 .04204144 2.8125203 -1.0576208)" d="m1252.957 392.274-206.066 85.544v-162.871z" style="opacity:.4"/>
 </g>
</svg>

<svg xmlns="http://www.w3.org/2000/svg" width="22" height="22" version="1.1" viewBox="0 0 22 22">
 <path style="opacity:0.2" d="m 11.000462,9.5000029 c -0.663295,-1.21e-4 -1.3266231,0.147688 -1.8174741,0.442197 l -7.447165,4.4675411 c -0.9817028,0.589018 -0.9807913,1.591937 9e-4,2.180956 l 7.44625,4.46754 c 0.9817031,0.589018 2.6532471,0.589017 3.6349481,0 l 7.446268,-4.46754 c 0.981701,-0.589017 0.980777,-1.59194 -9.5e-4,-2.180956 L 12.817935,9.9421999 c -0.490851,-0.294509 -1.154179,-0.442077 -1.817473,-0.442197 z"/>
 <path style="fill:#af2d2c" d="m 11.000462,9.0000029 c -0.663295,-1.204e-4 -1.3266231,0.147688 -1.8174741,0.442197 l -7.447165,4.4675411 c -0.9817028,0.589018 -0.9807913,1.591937 9e-4,2.180956 l 7.44625,4.46754 c 0.9817031,0.589018 2.6532471,0.589017 3.6349481,0 l 7.446268,-4.46754 c 0.981701,-0.589017 0.980777,-1.59194 -9.5e-4,-2.180956 L 12.817935,9.4421999 c -0.490851,-0.294509 -1.154179,-0.442076 -1.817473,-0.442197 z"/>
 <path style="opacity:0.2" d="M 11.000462,5.5000038 C 10.337167,5.4998833 9.6738389,5.6476918 9.1829879,5.9422012 L 1.7358231,10.409742 c -0.9817028,0.589018 -0.9807913,1.591937 9e-4,2.180956 l 7.4462508,4.46754 c 0.9817021,0.589017 2.6532471,0.589017 3.6349481,0 l 7.446268,-4.46754 c 0.9817,-0.589017 0.980776,-1.59194 -9.5e-4,-2.180956 L 12.817935,5.9422012 C 12.327084,5.6476918 11.663757,5.5001243 11.000462,5.5000038 Z"/>
 <path style="fill:#da3837" d="M 11.000462,5.0000039 C 10.337167,4.9998834 9.6738389,5.1476919 9.1829879,5.4422013 L 1.7358231,9.9097419 c -0.9817028,0.5890181 -0.9807913,1.5919371 9e-4,2.1809561 l 7.4462508,4.46754 c 0.9817021,0.589018 2.6532471,0.589017 3.6349481,0 l 7.446268,-4.46754 c 0.9817,-0.589017 0.980776,-1.59194 -9.5e-4,-2.1809561 L 12.817935,5.4422013 C 12.327084,5.1476919 11.663757,5.0001244 11.000462,5.0000039 Z"/>
 <path style="opacity:0.2" d="M 11.000462,1.5000049 C 10.337167,1.4998844 9.6738389,1.6476928 9.1829879,1.9422023 l -7.447165,4.4675408 c -0.9817028,0.5890178 -0.9807913,1.5919366 9e-4,2.1809555 l 7.44625,4.4675404 c 0.9817031,0.589017 2.6532471,0.589017 3.6349481,0 L 20.264189,8.5906986 C 21.24589,8.0016817 21.244966,6.9987589 20.263239,6.4097431 L 12.817935,1.9422023 C 12.327084,1.6476928 11.663756,1.5001254 11.000462,1.5000049 Z"/>
 <path style="fill:#e0504d" d="M 11.000462,1.0000049 C 10.337167,0.9998844 9.6738389,1.1476929 9.1829879,1.4422023 l -7.447165,4.4675409 c -0.9817028,0.5890179 -0.9807913,1.5919366 9e-4,2.1809555 l 7.44625,4.4675403 c 0.9817031,0.589018 2.6532471,0.589017 3.6349481,0 L 20.264189,8.0906987 C 21.24589,7.5016818 21.244966,6.4987591 20.263239,5.9097432 L 12.817935,1.4422023 C 12.327084,1.1476929 11.663756,1.0001254 11.000462,1.0000049 Z"/>
 <path style="opacity:0.2;fill:#ffffff" d="M 11,1.0000049 C 10.336705,0.9998844 9.6734679,1.1478781 9.1826169,1.4423876 L 1.7353537,5.9101597 C 1.1411396,6.2666861 0.913675,6.7737665 1.0390648,7.2500034 1.1204904,6.9394485 1.3478652,6.6426515 1.7353537,6.4101596 L 9.1826169,1.9423875 C 9.6734679,1.647878 10.336705,1.4998843 11,1.5000048 c 0.663295,1.205e-4 1.327508,0.1478732 1.818359,0.4423827 L 20.26367,6.4101596 C 20.651168,6.6426505 20.879161,6.939448 20.960935,7.2500034 21.085794,6.773766 20.857898,6.2666851 20.26367,5.9101597 L 12.818359,1.4423876 C 12.327508,1.1478781 11.663295,1.0001254 11,1.0000049 Z"/>
 <polygon style="opacity:0.2" points="759.89 376.17 715.19 301.86 572.44 289.03 678.96 250.62 647 191.66 746.72 230.66 840.74 199.88 815.33 260.85 911.2 296.75 787.57 309.58" transform="matrix(0.01476006,0,0,0.02167915,0.0507095,-1.1550007)"/>
 <polygon style="fill:#ffffff" points="746.72 230.66 840.74 199.88 815.33 260.85 911.2 296.75 787.57 309.58 759.89 376.17 715.19 301.86 572.44 289.03 678.96 250.62 647 191.66" transform="matrix(0.01476006,0,0,0.02167915,0.0507095,-1.6550007)"/>
 <polygon style="opacity:0.2" points="521.79 524.11 852.4 473.38 752.51 619.81" transform="matrix(0.01209877,0,0,0.02048718,1.6870313,-1.1981182)"/>
 <polygon style="fill:#ffffff" points="852.4 473.38 752.51 619.81 521.79 524.11" transform="matrix(0.01209877,0,0,0.02048718,1.6870313,-1.6981182)"/>
 <ellipse style="opacity:0.2" cx="6.5" cy="7" rx="2.5" ry="1.5"/>
 <ellipse style="fill:#ffffff" cx="6.5" cy="6.5" rx="2.5" ry="1.5"/>
 <g transform="matrix(0.51839738,0,0,0.58416919,-1.6991025,-2.1170529)">
  <path style="opacity:0.25" d="M 1046.891,477.818 840.825,400.575 1046.891,314.947 Z" transform="matrix(0.02808355,0,0,0.04204144,2.8125203,-1.0576208)"/>
  <path style="opacity:0.4" d="m 1252.957,392.274 -206.066,85.544 0,-162.871 z" transform="matrix(0.02808355,0,0,0.04204144,2.8125203,-1.0576208)"/>
 </g>
</svg>
